img/logo.svg

<svg width="124" height="31" viewBox="0 0 124 31" fill="none" xmlns="http://www.w3.org/2000/svg">
<path d="M0 29.6714V11.2929C0 10.9238 0.290058 10.6286 0.652632 10.6286H4.27836C4.64094 10.6286 4.93099 10.9238 4.93099 11.2929C4.93099 11.6619 5.29357 11.8833 5.58363 11.6619C6.9614 10.7024 8.55673 10.2595 10.152 10.2595C12.6175 10.2595 14.8655 11.3667 16.3158 12.9905C16.4608 13.1381 16.7509 13.2119 16.9684 12.9905C18.4912 11.5143 20.8117 10.1857 23.4947 10.1857C26.1778 10.1857 28.7158 11.4405 30.3111 13.3595C31.5439 14.9095 32.269 16.9024 32.269 19.8548V29.5976C32.269 29.9667 31.9789 30.2619 31.5439 30.2619H27.7006C27.338 30.2619 26.9754 29.9667 26.9754 29.5976V19.6333C26.9754 17.8619 26.6129 16.9024 26.0328 16.2381C25.2351 15.3524 24.0749 14.9833 23.1322 14.9833C21.0292 14.9833 19.2889 16.3857 18.5637 17.419C18.4912 17.4929 18.4912 17.6405 18.4912 17.7143C18.5637 18.3048 18.6363 19.0429 18.6363 19.781V29.5238C18.6363 29.8929 18.3462 30.1881 17.9111 30.1881H14.0678C13.7053 30.1881 13.3427 29.8929 13.3427 29.5238V19.6333C13.3427 17.8619 12.9801 16.9024 12.4 16.2381C11.6023 15.3524 10.4421 14.9833 9.49942 14.9833C7.39649 14.9833 5.87368 16.3857 5.07602 17.2714C5.00351 17.3452 5.00351 17.419 5.00351 17.5667V29.5238C5.00351 29.8929 4.71345 30.1881 4.35088 30.1881H0.652632C0.290058 30.3357 0 30.0405 0 29.6714ZM39.9556 0.221428C41.8409 0.221428 43.3637 1.69762 43.3637 3.61667C43.3637 5.53571 41.8409 7.0119 39.9556 7.0119C38.0702 7.0119 36.5474 5.53571 36.5474 3.61667C36.6199 1.69762 38.1427 0.221428 39.9556 0.221428ZM41.9135 30.3357H38.0702C37.7076 30.3357 37.345 30.0405 37.345 29.6714V12.8429C37.345 11.3667 38.5053 10.1857 39.9556 10.1857C41.4058 10.1857 42.5661 11.3667 42.5661 12.8429V29.6714C42.5661 30.0405 42.276 30.3357 41.9135 30.3357ZM56.4889 15.7214L59.7521 10.9238C59.8971 10.7762 60.1146 10.6286 60.3322 10.6286H64.538C65.1181 10.6286 65.4082 11.2929 65.1181 11.7357L59.5345 19.5595C59.462 19.7071 59.462 19.9286 59.5345 20.0762L65.9883 29.2286C66.2784 29.6714 65.9883 30.3357 65.4082 30.3357H60.9123C60.6947 30.3357 60.4772 30.2619 60.3322 30.0405L56.3439 24.2095C56.1988 23.9881 55.8363 23.9881 55.6912 24.2095L51.7029 30.0405C51.5579 30.1881 51.3404 30.3357 51.1228 30.3357H46.6269C46.0468 30.3357 45.7567 29.6714 46.0468 29.2286L52.5006 20.0762C52.5731 19.9286 52.5731 19.7071 52.5006 19.5595L47.1345 11.6619C46.8444 11.219 47.1345 10.5548 47.7146 10.5548H51.993C52.2105 10.5548 52.4281 10.6286 52.5731 10.85L55.8363 15.6476C55.9813 15.9429 56.2713 15.9429 56.4889 15.7214ZM72.3696 30.7048C70.9193 30.7048 69.7591 29.5238 69.7591 28.0476V2.14048C69.7591 1.77143 70.0491 1.47619 70.4117 1.47619H74.255C74.6175 1.47619 74.9076 1.77143 74.9076 2.14048V28.1214C74.9076 29.5238 73.8199 30.7048 72.3696 30.7048ZM104.494 30.3357H108.119C108.482 30.3357 108.772 30.0405 108.772 29.6714C108.772 29.3024 109.135 29.081 109.425 29.3024C110.875 30.3357 112.47 30.7786 114.138 30.7786C117.039 30.7786 119.722 29.45 121.462 27.4571C122.985 25.6857 123.927 23.25 123.927 20.519C123.927 14.7619 119.722 10.2595 114.428 10.2595C112.615 10.2595 111.02 10.7024 109.642 11.5881C109.352 11.8095 108.989 11.5881 108.989 11.219V2.14048C108.989 1.77143 108.699 1.47619 108.337 1.47619H104.494C104.131 1.47619 103.841 1.77143 103.841 2.14048V29.6714C103.841 30.0405 104.131 30.3357 104.494 30.3357ZM113.775 15.131C116.676 15.131 119.069 17.4929 119.069 20.519C119.069 23.4714 116.676 25.9071 113.775 25.9071C110.875 25.9071 108.482 23.4714 108.482 20.519C108.554 17.4929 110.947 15.131 113.775 15.131ZM98.4749 10.6286H94.8491C94.4866 10.6286 94.1965 10.9238 94.1965 11.2929C94.1965 11.6619 93.8339 11.8833 93.5439 11.6619C92.0936 10.7024 90.4257 10.1857 88.5404 10.1857C83.2468 10.1857 79.0409 14.6143 79.0409 20.4452C79.0409 23.1762 79.9836 25.6119 81.5064 27.3833C83.2468 29.45 85.9298 30.7048 88.8304 30.7048C90.5708 30.7048 92.0936 30.2619 93.5439 29.2286C93.8339 29.0071 94.1965 29.2286 94.1965 29.5976V29.6714C94.1965 30.0405 94.4866 30.3357 94.8491 30.3357H98.4749C98.8374 30.3357 99.1275 30.0405 99.1275 29.6714V11.2929C99.2 10.9238 98.8374 10.6286 98.4749 10.6286ZM89.1205 25.8333C86.2199 25.8333 83.8269 23.3976 83.8269 20.4452C83.8269 17.419 86.2199 15.0571 89.1205 15.0571C92.0211 15.0571 94.414 17.419 94.414 20.4452C94.4865 23.4714 92.0936 25.8333 89.1205 25.8333Z" fill="#F5A61C"/>
</svg>

<svg xmlns="http://www.w3.org/2000/svg" width="124" height="31" fill="none" xmlns:v="https://vecta.io/nano"><path d="M0 29.671V11.293c0-.369.29-.664.653-.664h3.626c.363 0 .653.295.653.664s.363.59.653.369c1.378-.959 2.973-1.402 4.568-1.402 2.466 0 4.714 1.107 6.164 2.731.145.148.435.221.653 0 1.523-1.476 3.843-2.805 6.526-2.805s5.221 1.255 6.816 3.174c1.233 1.55 1.958 3.543 1.958 6.495v9.743c0 .369-.29.664-.725.664h-3.843c-.363 0-.725-.295-.725-.664v-9.964c0-1.771-.363-2.731-.943-3.395-.798-.886-1.958-1.255-2.901-1.255-2.103 0-3.843 1.402-4.568 2.436-.073.074-.073.221-.073.295.073.59.145 1.329.145 2.067v9.743c0 .369-.29.664-.725.664h-3.843c-.363 0-.725-.295-.725-.664v-9.891c0-1.771-.363-2.731-.943-3.395-.798-.886-1.958-1.255-2.901-1.255-2.103 0-3.626 1.402-4.423 2.288-.073.074-.073.148-.073.295v11.957c0 .369-.29.664-.653.664H.653C.29 30.336 0 30.041 0 29.671zM39.956.221a3.37 3.37 0 0 1 3.408 3.395 3.37 3.37 0 0 1-3.408 3.395 3.37 3.37 0 0 1-3.408-3.395C36.62 1.698 38.143.221 39.956.221zm1.958 30.114H38.07c-.363 0-.725-.295-.725-.664V12.843c0-1.476 1.16-2.657 2.611-2.657s2.611 1.181 2.611 2.657v16.829c0 .369-.29.664-.653.664zm14.575-14.614l3.263-4.798c.145-.148.363-.295.58-.295h4.206c.58 0 .87.664.58 1.107l-5.584 7.824a.64.64 0 0 0 0 .517l6.454 9.152c.29.443 0 1.107-.58 1.107h-4.496c-.218 0-.435-.074-.58-.295l-3.988-5.831c-.145-.221-.508-.221-.653 0l-3.988 5.831c-.145.148-.362.295-.58.295h-4.496c-.58 0-.87-.664-.58-1.107l6.454-9.152a.64.64 0 0 0 0-.517l-5.366-7.898c-.29-.443 0-1.107.58-1.107h4.278c.218 0 .435.074.58.295l3.263 4.798c.145.295.435.295.653.074zM72.37 30.705c-1.45 0-2.611-1.181-2.611-2.657V2.14c0-.369.29-.664.653-.664h3.843c.363 0 .653.295.653.664v25.981c0 1.402-1.088 2.583-2.538 2.583zm32.124-.369h3.625c.363 0 .653-.295.653-.664s.363-.59.653-.369c1.45 1.033 3.045 1.476 4.713 1.476 2.901 0 5.584-1.329 7.324-3.322 1.523-1.771 2.465-4.207 2.465-6.938 0-5.757-4.205-10.259-9.499-10.259-1.813 0-3.408.443-4.786 1.329-.29.221-.653 0-.653-.369V2.14c0-.369-.29-.664-.652-.664h-3.843c-.363 0-.653.295-.653.664v27.531c0 .369.29.664.653.664zm9.281-15.205c2.901 0 5.294 2.362 5.294 5.388 0 2.952-2.393 5.388-5.294 5.388s-5.293-2.436-5.293-5.388c.072-3.026 2.465-5.388 5.293-5.388zm-15.3-4.502h-3.626c-.363 0-.653.295-.653.664s-.363.59-.653.369c-1.45-.959-3.118-1.476-5.003-1.476-5.294 0-9.5 4.429-9.5 10.26 0 2.731.943 5.167 2.466 6.938 1.74 2.067 4.423 3.322 7.324 3.322 1.74 0 3.263-.443 4.713-1.476.29-.221.653 0 .653.369v.074c0 .369.29.664.653.664h3.626c.362 0 .653-.295.653-.664V11.293c.073-.369-.29-.664-.653-.664zm-9.354 15.205c-2.901 0-5.294-2.436-5.294-5.388 0-3.026 2.393-5.388 5.294-5.388s5.293 2.362 5.293 5.388c.073 3.026-2.32 5.388-5.293 5.388z" fill="#f5a61c"/></svg>
